blockchains/ethereum/assets/0x7c8161545717a334f3196e765d9713f8042EF338/logo.svg

<svg fill="none" height="250" viewBox="0 0 250 250" width="250" xmlns="http://www.w3.org/2000/svg" xmlns:xlink="http://www.w3.org/1999/xlink"><clipPath id="a"><path d="m41.6667 41.6641h166.667v166.667h-166.667z"/></clipPath><rect fill="#39d0de" height="250" rx="125" width="250"/><g clip-path="url(#a)"><path clip-rule="evenodd" d="m71.6352 67.7057c-2.6288-13.5416 7.8864-26.0416 21.5563-26.0416 12.0925 0 22.0815 9.8958 22.0815 21.875v27.0833c3.155 0 6.31-.5208 9.464-.5208 3.155 0 5.784 0 8.938.5208v-27.0833c0-11.9792 9.99-21.875 22.082-21.875 13.67 0 24.185 12.5 22.082 26.0416l-5.783 31.7709c20.505 8.8544 36.277 24.4794 36.277 43.7504v11.979c0 16.146-10.515 29.687-25.762 38.541-15.247 9.375-35.226 14.584-57.834 14.584s-42.5866-5.209-57.8337-14.584c-14.7213-8.854-25.2366-22.395-25.2366-38.541v-11.979c0-19.271 15.2472-34.896 35.7519-43.7504zm92.5338 35.9373 6.835-37.4998c1.578-9.375-5.257-18.2291-15.247-18.2291-8.412 0-15.247 6.7708-15.247 15.1041v34.375c-2.103-.5208-4.732-.5208-6.835-.5208-3.154 0-5.783-.5208-8.938-.5208-3.154 0-6.309 0-9.464.5208-2.103 0-4.731.5208-6.834.5208v-33.8541c0-8.3334-6.835-15.1042-15.2475-15.1042-9.4638 0-16.8244 8.8542-14.7214 18.2292l6.8349 37.4999c-22.082 8.333-36.8033 22.917-36.8033 39.583v11.98c0 25.52 34.1745 46.354 76.2353 46.354 42.061 0 76.236-20.834 76.236-46.354v-11.98c.525-17.187-14.196-31.77-36.804-40.104z" fill="#633001" fill-rule="evenodd"/><path d="m201.498 155.206c0 25.521-34.174 46.354-76.235 46.354-42.0611 0-76.2357-20.833-76.2357-46.354v-11.979h152.9967v11.979z" fill="#fedc90"/><path clip-rule="evenodd" d="m78.47 66.6667c-2.103-9.375 5.2577-18.2292 14.7214-18.2292 8.4126 0 15.2466 6.7708 15.2466 15.1042v34.375c5.258-.5209 10.516-1.0417 16.299-1.0417 5.258 0 10.515.5208 15.773 1.0417v-34.375c0-8.3334 6.835-15.1042 15.247-15.1042 9.464 0 16.824 8.8542 15.247 18.2292l-6.835 37.5003c22.082 8.333 37.329 22.916 37.329 39.583 0 25.521-34.174 46.354-76.235 46.354-42.0611 0-76.2357-20.833-76.2357-46.354 0-16.667 14.7214-31.25 36.8034-39.583z" fill="#d1884f" fill-rule="evenodd"/><g fill="#633001"><path d="m103.707 140.102c0 6.77-3.681 12.5-8.4125 12.5-4.7318 0-8.4122-5.73-8.4122-12.5 0-6.771 3.6804-12.5 8.4122-12.5 4.7315 0 8.4125 5.729 8.4125 12.5z"/><path d="m162.066 140.102c0 6.77-3.68 12.5-8.412 12.5s-8.412-5.73-8.412-12.5c0-6.771 3.68-12.5 8.412-12.5s8.412 5.729 8.412 12.5z"/></g></g></svg>

<svg width="250" height="250" viewBox="0 0 250 250" fill="none" xmlns="http://www.w3.org/2000/svg">
<rect width="250" height="250" rx="125" fill="#39D0DE"/>
<g clip-path="url(#clip0_50_10739)">
<path fill-rule="evenodd" clip-rule="evenodd" d="M71.6352 67.7057C69.0064 54.1641 79.5216 41.6641 93.1915 41.6641C105.284 41.6641 115.273 51.5599 115.273 63.5391V90.6224C118.428 90.6224 121.583 90.1016 124.737 90.1016C127.892 90.1016 130.521 90.1016 133.675 90.6224V63.5391C133.675 51.5599 143.665 41.6641 155.757 41.6641C169.427 41.6641 179.942 54.1641 177.839 67.7057L172.056 99.4766C192.561 108.331 208.333 123.956 208.333 143.227V155.206C208.333 171.352 197.818 184.893 182.571 193.747C167.324 203.122 147.345 208.331 124.737 208.331C102.129 208.331 82.1504 203.122 66.9033 193.747C52.182 184.893 41.6667 171.352 41.6667 155.206V143.227C41.6667 123.956 56.9139 108.331 77.4186 99.4766L71.6352 67.7057ZM164.169 103.643L171.004 66.1432C172.582 56.7682 165.747 47.9141 155.757 47.9141C147.345 47.9141 140.51 54.6849 140.51 63.0182V97.3932C138.407 96.8724 135.778 96.8724 133.675 96.8724C130.521 96.8724 127.892 96.3516 124.737 96.3516C121.583 96.3516 118.428 96.3516 115.273 96.8724C113.17 96.8724 110.542 97.3932 108.439 97.3932V63.5391C108.439 55.2057 101.604 48.4349 93.1915 48.4349C83.7277 48.4349 76.3671 57.2891 78.4701 66.6641L85.305 104.164C63.223 112.497 48.5017 127.081 48.5017 143.747V155.727C48.5017 181.247 82.6762 202.081 124.737 202.081C166.798 202.081 200.973 181.247 200.973 155.727V143.747C201.498 126.56 186.777 111.977 164.169 103.643Z" fill="#633001"/>
<path d="M201.498 155.206C201.498 180.727 167.324 201.56 125.263 201.56C83.2019 201.56 49.0273 180.727 49.0273 155.206V143.227H202.024V155.206H201.498Z" fill="#FEDC90"/>
<path fill-rule="evenodd" clip-rule="evenodd" d="M78.47 66.6667C76.367 57.2917 83.7277 48.4375 93.1914 48.4375C101.604 48.4375 108.438 55.2083 108.438 63.5417V97.9167C113.696 97.3958 118.954 96.875 124.737 96.875C129.995 96.875 135.252 97.3958 140.51 97.9167V63.5417C140.51 55.2083 147.345 48.4375 155.757 48.4375C165.221 48.4375 172.581 57.2917 171.004 66.6667L164.169 104.167C186.251 112.5 201.498 127.083 201.498 143.75C201.498 169.271 167.324 190.104 125.263 190.104C83.2019 190.104 49.0273 169.271 49.0273 143.75C49.0273 127.083 63.7487 112.5 85.8307 104.167L78.47 66.6667Z" fill="#D1884F"/>
<path d="M103.707 140.102C103.707 146.872 100.026 152.602 95.2945 152.602C90.5627 152.602 86.8823 146.872 86.8823 140.102C86.8823 133.331 90.5627 127.602 95.2945 127.602C100.026 127.602 103.707 133.331 103.707 140.102Z" fill="#633001"/>
<path d="M162.066 140.102C162.066 146.872 158.386 152.602 153.654 152.602C148.922 152.602 145.242 146.872 145.242 140.102C145.242 133.331 148.922 127.602 153.654 127.602C158.386 127.602 162.066 133.331 162.066 140.102Z" fill="#633001"/>
</g>
<defs>
<clipPath id="clip0_50_10739">
<rect width="166.667" height="166.667" fill="white" transform="translate(41.6667 41.6641)"/>
</clipPath>
</defs>
</svg>
